!!!!SEGMENT: pl-kk--kk-i-1--031_anonim--qualis-est-dilecta-nostra.krn
!!!cenid: 15xx:744
!!!COM: Anonim
!!!COM-rismID: pe30004985
!!!CDT:
!!!CNT:
!!!OTL: Qualis est dilecta nostra
!!!PDT:
!!!AGN:
!!!SMS-siglum: PL-Kk
!!!SMS-shelfmark: Kk.I.1
!!!SMS-shelfwork: 031 W
!!!SMS-variant:
!!!SMS-altvar:
!!!NIFC-rismSourceID: 300257985
!!!NIFC-islandoraID: pl-kk:1
!!!URL-pdf-islandora: https://repozytorium.nifc.pl/islandora/object/pl-kk%3A1/datastream/PDF/view
!!!URL-scan: https://polish.musicsources.pl/pl/lokalizacje/galeria/rekopisy/5736 @EN{Scan on Polish Music Herritage in Open Access Website} @PL{Skany w portalu Dziedzictwo Muzyki Polskiej w otwartym dostępie}
!!!ONB-nifc: UWAGA: Cantus (s. 121r-122v, skan 0123-0125), Altus (s. 116r-117v, skan 0309-0311), Tenor (s. 103r-104r, skan 0493-0494), Bassus (s. 109v-110v, skan 0672-0673).
!!!AIN: 1 alto 1 bass 1 soprn 1 tenor
!!!key: F:lyd
**kern	**text	**kern	**text	**kern	**text	**kern	**text
*part4	*part4	*part3	*part3	*part2	*part2	*part1	*part1
*staff4	*staff4	*staff3	*staff3	*staff2	*staff2	*staff1	*staff1
*I"BASSVS	*	*I"TENOR	*	*I"ALTVS	*	*I"CANTVS	*
*I'B	*	*I'T	*	*I'A	*	*I'S	*
*clefF4	*	*clefC4	*	*clefC4	*	*clefC3	*
*Ibass	*	*Itenor	*	*Ialto	*	*Isoprn	*
*ICvox	*	*ICvox	*	*ICvox	*	*ICvox	*
*k[b-]	*	*k[b-]	*	*k[b-]	*	*k[b-]	*
*F:lyd	*	*F:lyd	*	*F:lyd	*	*F:lyd	*
*M2/1	*	*M2/1	*	*M2/1	*	*M2/1	*
*met(C)	*	*met(C)	*	*met(C)	*	*met(C)	*
*all\middle	*	*all\middle	*	*all\middle	*	*all\middle	*
*lig	*	*lig	*	*	*	*	*
=1-	=1-	=1-	=1-	=1-	=1-	=1-	=1-
*	*	*	*	*	*	*lig	*
!	!	!LO:TX:t=P:problem=brak bemola przy kluczu	!	!	!	!	!
!	!	!	!	!LO:TX:t=P:problem=brak oznaczenia metrum	!	!	!
1F	Qua-	1F	Qua-	0c	Qua-	1f	Qua-
1C	.	1G	.	.	.	1e	.
*Xlig	*	*Xlig	*	*	*	*Xlig	*
=2-	=2-	=2-	=2-	=2-	=2-	=2-	=2-
2D/	.	1F	-lis	2A\	.	2f\	.
1BB-	.	.	.	1B-	-lis	1d	-lis
.	.	1F	eſt	.	.	.	.
2AA/	-lis	.	.	2c\	eſt	2c/	.
=3-	=3-	=3-	=3-	=3-	=3-	=3-	=3-
2BB-/	eſt	1F	di-	2d\	.	2B-/	eſt
2C/	di-	.	.	1c	di-	4A/	.
.	.	.	.	.	.	4G/	.
*lig	*	*	*	*	*	*	*
1D	-lec-	1F	-lec-	.	.	2F/	.
.	.	.	.	2B-\	-lec-	1f\	di-
=4-	=4-	=4-	=4-	=4-	=4-	=4-	=4-
1C	.	1G	-ta	2c\	-ta	.	.
.	.	.	.	4c\	no-	2e\	-le-
.	.	.	.	4B-\	.	.	.
*Xlig	*	*lig	*	*	*	*	*
2FF/	-ta	1A	no-	4A/	.	2f\	-cta
.	.	.	.	4G/	.	.	.
4F\	.	.	.	4F/	.	2.f\	no-
4E\	no-	.	.	4G/	.	.	.
=5-	=5-	=5-	=5-	=5-	=5-	=5-	=5-
4D/	.	1F	.	2A/	.	.	.
4C/	.	.	.	.	.	4e\	.
*	*	*	*	*custos:c	*	*	*
4BB-/	.	.	.	1B-	.	4d\	.
4AA/	.	.	.	.	.	4c/	.
*	*	*Xlig	*	*	*	*	*
*	*	*lig	*	*	*	*	*
*custos:C	*	*	*	*	*	*	*
2GG/	.	1G	.	.	.	4B-/	.
*	*	*	*	*	*	*custos:G	*
.	.	.	.	.	.	4A/	.
!LO:LB:g=original	!	!	!	!LO:LB:g=original	!	!LO:LB:g=original	!
2.C/	.	.	.	2c\	.	2G/	.
=6-	=6-	=6-	=6-	=6-	=6-	=6-	=6-
.	.	1E	.	2G/	.	2.c/	.
4BB-/	.	.	.	.	.	.	.
4AA/	.	.	.	4A/	.	.	.
4GG/	.	.	.	4B-/	.	4B-/	.
*lig	*	*Xlig	*	*	*	*	*
*	*	*lig	*	*	*	*	*
1FF	.	1F	.	0c	.	4A/	.
.	.	.	.	.	.	4G/	.
.	.	.	.	.	.	1F/	.
=7-	=7-	=7-	=7-	=7-	=7-	=7-	=7-
1C	.	1G	.	.	.	.	.
.	.	.	.	.	.	2E/	-ſtra
*Xlig	*	*Xlig	*	*	*	*	*
1FF	-ſtra	1F	-ſtra	2A/	-ſtra	2F/	.
.	.	.	.	2A/	.	2f\	Cha-
=8-	=8-	=8-	=8-	=8-	=8-	=8-	=8-
*	*	*custos:A	*	*	*	*	*
2BB-/	.	1F	cha-	2B-\	cha-	2.d\	.
1D	cha-	.	.	4A/	.	.	.
.	.	.	.	4G/	-ri-	4e\	.
*	*	*lig	*	*	*	*	*
!	!	!LO:PB:g=original	!	!	!	!	!
.	.	1A	-riſ-	4F/	.	2f\	-riſ-
.	.	.	.	4D/	.	.	.
2C/	.	.	.	4E/	.	2e\	.
.	.	.	.	4C/	.	.	.
=9-	=9-	=9-	=9-	=9-	=9-	=9-	=9-
2BB-/	.	1F	.	4D/	.	2d\	.
.	.	.	.	4E/	.	.	.
2AA/	-riſ-	.	.	1F	.	2c/	.
*	*	*Xlig	*	*	*	*	*
*	*	*lig	*	*	*	*	*
1GG	-ſi-	1G	.	.	.	2.B-/	.
.	.	.	.	2E/	.	.	.
.	.	.	.	.	.	4c/	.
=10-	=10-	=10-	=10-	=10-	=10-	=10-	=10-
2FF/	-ma	1A	.	2.F/	.	2d\	.
*	*ij	*	*	*	*	*	*
1F	cha-	.	.	.	.	4c/	.
.	.	.	.	4G/	.	4B-/	.
*	*	*Xlig	*	*	*	*	*
*	*	*lig	*	*	*	*	*
.	.	1c	.	4A/	.	2A/	.
*	*	*	*	*custos:G	*	*	*
.	.	.	.	4F/	.	.	.
!	!	!	!	!LO:LB:g=original	!	!	!
2E\	.	.	.	2.G/	.	2G/	.
=11-	=11-	=11-	=11-	=11-	=11-	=11-	=11-
*	*	*	*	*	*	*custos:B-	*
2D/	-riſ-	1d	.	.	.	2A/	.
.	.	.	.	4F/	.	.	.
!	!	!	!	!	!	!LO:LB:g=original	!
2BB-/	.	.	.	1F	.	2B-/	.
*	*	*Xlig	*	*	*	*	*
1C	-ſi-	1c	-ſi-	.	.	1G	-ſi-
.	.	.	.	2E/	-ſi-	.	.
=12-	=12-	=12-	=12-	=12-	=12-	=12-	=12-
*	*	*lig	*	*	*	*	*
0FF	-ma	1c	-mi,	1F	-mi	1A	-mi,
*	*Xij	*	*	*	*	*	*
.	.	1A	.	2r	.	2.c/	qua-
.	.	.	.	2.c\	qua-	.	.
.	.	.	.	.	.	4B-/	.
*	*	*Xlig	*	*	*	*	*
=13-	=13-	=13-	=13-	=13-	=13-	=13-	=13-
*	*	*lig	*	*	*	*	*
0F	.	1c	qua-	.	.	2.A/	.
.	.	.	.	4B-\	.	.	.
.	.	.	.	2.A/	.	.	.
.	.	.	.	.	.	4G/	.
.	.	1A	.	.	.	2F/	.
.	.	.	.	4G/	.	.	.
.	.	.	.	2F/	.	1f\	-lis
*	*	*Xlig	*	*	*	*	*
=14-	=14-	=14-	=14-	=14-	=14-	=14-	=14-
*custos:F	*	*	*	*	*	*	*
1C	qua-	1G	.	0c	-lis	.	.
.	.	.	.	.	.	2e\	eſt,
*	*	*lig	*	*	*	*	*
!LO:LB:g=original	!	!	!	!	!	!	!
1F	.	1A	-lis	.	.	1f	.
=15-	=15-	=15-	=15-	=15-	=15-	=15-	=15-
1.F	.	1c	.	2A\	eſt	0r	.
.	.	.	.	1A	ma-	.	.
*	*	*Xlig	*	*	*	*	*
.	.	1c	eſt	.	.	.	.
2E\	-lis	.	.	2G/	-ter	.	.
=16-	=16-	=16-	=16-	=16-	=16-	=16-	=16-
*	*	*lig	*	*	*	*	*
2F\	eſt	1d	.	2A/	di-	2r	.
2G\	.	.	.	2B-\	-ci-	2d\	ma-
*	*	*	*	*	*	*lig	*
1C	ma-	1c	.	1G	-te	1e	.
*	*	*Xlig	*	*	*	*	*
=17-	=17-	=17-	=17-	=17-	=17-	=17-	=17-
*	*	*lig	*	*	*ij	*	*
1D	-ter	1A	ma-	2r	.	1f	.
.	.	.	.	2F/	di-	.	.
*	*	*	*	*	*	*Xlig	*
*	*	*	*	*custos:A	*	*	*
2C/	.	1c	.	2G/	-ci-	2e\	-ter
!	!	!	!	!LO:PB:g=original	!	!	!
2.FF/	di-	.	.	1A\	-te	1f\	di-
*	*	*Xlig	*	*	*Xij	*	*
=18-	=18-	=18-	=18-	=18-	=18-	=18-	=18-
.	.	1c	-ter	.	.	.	.
4GG/	.	.	.	.	.	.	.
4AA/	.	.	.	4G/	di-	4e\	.
4BB-/	.	.	.	4F/	.	4d\	.
*	*	*lig	*	*	*	*	*
2C/	.	1A	di-	2E/	.	2e\	.
2D/	.	.	.	4D/	.	2f\	.
.	.	.	.	4C/	.	.	.
=19-	=19-	=19-	=19-	=19-	=19-	=19-	=19-
*	*	*	*	*	*	*custos:c	*
1BB-	-ci-	1G	.	1D	.	1d	-ci-
*	*	*Xlig	*	*	*	*	*
!	!	!	!	!	!	!LO:LB:g=original	!
2AA/	-te	1A	.	2E/	.	2c/	-te
2D/	di-	.	.	2F/	.	4F/	di-
.	.	.	.	.	.	4G/	.
=20-	=20-	=20-	=20-	=20-	=20-	=20-	=20-
*	*	*lig	*	*	*	*	*
2C/	.	1c	.	4E/	.	4A/	.
.	.	.	.	4D/	.	4B-/	.
2AA/	-ci-	.	.	4E/	.	1c	.
.	.	.	.	4F/	.	.	.
*custos:AA	*	*	*	*	*	*	*
1GG	-te	1d	.	1G	-ci-	.	.
.	.	.	.	.	.	2B-/	.
*	*	*Xlig	*	*	*	*	*
=21-	=21-	=21-	=21-	=21-	=21-	=21-	=21-
*	*ij	*	*	*	*	*	*
!LO:LB:g=original	!	!	!	!	!	!	!
2AA/	di-	1c	-ci-	2E/	-te	2c/	.
*	*	*	*	*	*ij	*	*
2FF/	.	.	.	1F	di-	2A/	.
*	*	*lig	*	*	*	*	*
1C	-ci-	1c	-te	.	.	1G	-ci-
.	.	.	.	2E/	-ci-	.	.
=22-	=22-	=22-	=22-	=22-	=22-	=22-	=22-
*	*	*custos:c	*	*	*	*	*
2FF/	-te	1A	.	2F/	-te	2c/	-te,
*	*Xij	*	*	*	*Xij	*	*
1F	do-	.	.	1A	.	2.d\	do-
*	*	*Xlig	*	*	*	*	*
*	*	*lig	*	*	*	*	*
!	!	!LO:LB:g=original	!	!	!	!	!
.	.	1c	do-	.	.	.	.
.	.	.	.	.	.	4c/	.
2E\	.	.	.	1G/	do-	1c\	.
=23-	=23-	=23-	=23-	=23-	=23-	=23-	=23-
1D	-mi-	1d	.	.	.	.	.
*	*	*	*	*custos:G	*	*	*
.	.	.	.	2F/	-mi-	2B-/	.
*	*	*Xlig	*	*	*	*	*
!	!	!	!	!LO:LB:g=original	!	!	!
1C	-ni	1e	.	2G/	-ni	2c/	-mi-
.	.	.	.	1A\	.	2.c/	-ni
=24-	=24-	=24-	=24-	=24-	=24-	=24-	=24-
*	*	*lig	*	*	*	*	*
2r	.	1c	-mi-	.	.	.	.
.	.	.	.	.	.	4d\	do-
*	*	*	*	*	*	*custos:f	*
2C/	do-	.	.	2G/	do-	2e\	.
!	!	!	!	!	!	!LO:PB:g=original	!
2D\	-mi-	1B-	.	2F/	.	2f\	.
2E\	-(ni)	.	.	2G/	-mi-	4e\	-mi-
.	.	.	.	.	.	4d\	.
*	*	*Xlig	*	*	*	*	*
=25-	=25-	=25-	=25-	=25-	=25-	=25-	=25-
2.F\	qua-	1A	-ni,	2A\	-ni	2c/	-ni
.	.	.	.	2.c\	.	2f\	.
4G\	.	.	.	.	.	.	.
*	*	*lig	*	*	*	*	*
1A	.	1c	qua-	.	.	1e	.
.	.	.	.	4B-\	qua-	.	.
.	.	.	.	4A\	.	.	.
.	.	.	.	4G/	.	.	.
=26-	=26-	=26-	=26-	=26-	=26-	=26-	=26-
2D/	-lis	1A	.	2F/	.	2d\	.
1F	.	.	.	1A	.	4c/	qua-
.	.	.	.	.	.	4B-/	.
*	*	*Xlig	*	*	*	*	*
*	*	*lig	*	*	*	*	*
.	.	1c	.	.	.	4A/	.
.	.	.	.	.	.	4B-/	.
2E\	qua-	.	.	2G/	.	2c/	.
=27-	=27-	=27-	=27-	=27-	=27-	=27-	=27-
2D/	.	1d	.	2F/	.	2B-/	.
2C/	.	.	.	2E/	.	1A	.
*	*	*Xlig	*	*	*	*	*
*custos:AA	*	*	*	*	*	*	*
1BB-	.	1d	-lis	1D	.	.	.
.	.	.	.	.	.	2G/	-lis
=28-	=28-	=28-	=28-	=28-	=28-	=28-	=28-
!LO:PB:g=original	!	!	!	!	!	!	!
2AA/	-lis	1c	.	2E/	-lis	1A	.
2AA/	et	.	.	1E	et	.	.
*	*	*lig	*	*	*	*	*
2.C/	quan-	1c	eſt	.	.	1G	et
.	.	.	.	2.G/	quan-	.	.
4BB-/	.	.	.	.	.	.	.
=29-	=29-	=29-	=29-	=29-	=29-	=29-	=29-
4GG/	.	1d	.	.	.	1B-	quan-
4AA/	.	.	.	4F/	.	.	.
2BB-/	.	.	.	4D/	.	.	.
*	*	*	*	*custos:F	*	*	*
.	.	.	.	4E/	.	.	.
*	*	*Xlig	*	*	*	*	*
*	*	*	*	*	*	*custos:F	*
!	!	!	!	!LO:LB:g=original	!	!	!
2FF/	-ta	1c	quan-	2F/	.	2A/	-ta
!	!	!	!	!	!	!LO:LB:g=original	!
2.FF/	ſit	.	.	2C/	-ta	4F/	ſit
.	.	.	.	.	.	4G/	.
=30-	=30-	=30-	=30-	=30-	=30-	=30-	=30-
*	*	*lig	*	*	*	*	*
.	.	1A	.	1F	ſit	4A/	.
4GG/	.	.	.	.	.	4B-/	.
4AA/	.	.	.	.	.	4c/	.
4BB-/	.	.	.	.	.	4d\	.
1C	.	1G	.	1.E	ſo-	4e\	.
.	.	.	.	.	.	4f\	.
.	.	.	.	.	.	2.g\	.
*	*	*Xlig	*	*	*	*	*
=31-	=31-	=31-	=31-	=31-	=31-	=31-	=31-
2AA/	ſo-	1c	-ta	.	.	.	.
.	.	.	.	.	.	4f\	ſo-
2FF/	-ror	.	.	2F/	.	1f	-ror
1C	.	1c	ſit	2G/	-ror	.	.
.	.	.	.	2.C/	.	2e\	.
=32-	=32-	=32-	=32-	=32-	=32-	=32-	=32-
*	*	*lig	*	*	*	*	*
2FF/	.	1c	ſo-	.	.	2f\	.
.	.	.	.	4D/	.	.	.
2C/	ſit	.	.	2E/	.	2.e\	ſit
2D/	ſo-	1A	.	1F	ſo-	.	.
.	.	.	.	.	.	4d\	.
2F\	.	.	.	.	.	1d\	.
*	*	*Xlig	*	*	*	*	*
=33-	=33-	=33-	=33-	=33-	=33-	=33-	=33-
*	*	*lig	*	*	*	*	*
*custos:D	*	*	*	*	*	*	*
1E	.	1G	-ror,	1G	-ror	.	.
.	.	.	.	.	.	2c/	.
*	*	*	*	*	*ij	*	*
!LO:LB:g=original	!	!	!	!	!	!	!
1D	-ror	1A	.	1F	qua-	1d	.
*	*	*Xlig	*	*	*	*	*
=34-	=34-	=34-	=34-	=34-	=34-	=34-	=34-
*	*	*lig	*	*	*	*	*
2C/	.	1c	.	2G/	-lis	2e\	.
2.FF/	ſit	.	.	2F/	et	1f	.
.	.	1A	.	1C	quan-	.	.
4GG/	ſo-	.	.	.	.	.	.
2AA/	.	.	.	.	.	2e\	.
*	*	*Xlig	*	*	*	*	*
=35-	=35-	=35-	=35-	=35-	=35-	=35-	=35-
*	*	*custos:G	*	*	*	*custos:c	*
2BB-/	.	1F	et	2D/	.	2d\	.
!	!	!	!	!	!	!LO:LB:g=original	!
2AA/	.	.	.	1F	-ta	2c/	.
*	*	*lig	*	*	*	*	*
!	!	!LO:LB:g=original	!	!	!	!	!
1GG	.	1G	ſpon-	.	.	1B-	ſo-
.	.	.	.	2E/	ſit	.	.
=36-	=36-	=36-	=36-	=36-	=36-	=36-	=36-
2FF/	-ror	1A	.	1F	ſo-	2A/	-ror
1F	et	.	.	.	.	2c/	et
*	*	*Xlig	*	*	*	*	*
*	*	*lig	*	*	*	*	*
.	.	1G	.	2C/	-ror	2d\	.
*	*	*	*	*	*Xij	*	*
*	*	*	*	*custos:d	*	*	*
2E\	.	.	.	2c\	et	2e\	ſpon-
=37-	=37-	=37-	=37-	=37-	=37-	=37-	=37-
!	!	!	!	!LO:LB:g=original	!	!	!
2D/	ſpon-	1A	.	2d\	ſpon-	2f\	.
2C/	.	.	.	2e\	.	2e\	.
*	*	*Xlig	*	*	*	*	*
*	*	*lig	*	*	*	*	*
1D	.	1A	-ſa	1f	-ſa	1d	.
=38-	=38-	=38-	=38-	=38-	=38-	=38-	=38-
1.AA	.	1c	.	2e\	.	2c/	-ſa
.	.	.	.	2.A/	Chri-	2.e\	Chri-
*	*	*Xlig	*	*	*	*	*
*	*	*lig	*	*	*	*	*
.	.	1A	.	.	.	.	.
.	.	.	.	4B-\	.	4c/	.
2FF/	-ſa	.	.	2c\	.	1f\	.
=39-	=39-	=39-	=39-	=39-	=39-	=39-	=39-
0C	Chri-	1G	.	1c	-ſti	.	.
.	.	.	.	.	.	4e\	.
.	.	.	.	.	.	4d\	.
*	*	*Xlig	*	*	*	*	*
*	*	*lig	*	*	*	*	*
.	.	1G	Chri-	2.c\	Chri-	2e\	.
.	.	.	.	.	.	2.c/	.
.	.	.	.	4B-\	.	.	.
=40-	=40-	=40-	=40-	=40-	=40-	=40-	=40-
2FF/	-(st)i	1A	.	4A/	.	.	.
.	.	.	.	4G/	.	4B-/	.
1F	.	.	.	4F/	.	4A/	.
.	.	.	.	4G/	.	4G/	.
*	*	*Xlig	*	*	*	*	*
*	*	*lig	*	*	*	*	*
.	.	1c	.	2A/	.	2F/	.
*custos:D	*	*	*	*	*	*custos:A	*
2E\	Chri-	.	.	2.G/	.	2G/	.
=41-	=41-	=41-	=41-	=41-	=41-	=41-	=41-
!LO:LB:g=original	!	!	!	!	!	!LO:LB:g=original	!
2D/	.	1d	.	.	.	2A/	.
.	.	.	.	4F/	.	.	.
2BB-/	.	.	.	1F	.	2B-/	.
*	*	*Xlig	*	*	*	*	*
1C	.	1c	.	.	.	1G	.
.	.	.	.	2E/	.	.	.
=42-	=42-	=42-	=42-	=42-	=42-	=42-	=42-
*	*	*lig	*	*	*	*	*
4FF/	.	1c	-ſti	1F	-ſti	4A/	.
4GG/	.	.	.	.	.	4B-/	-ſti
4AA/	.	.	.	.	.	4c/	.
4BB-/	.	.	.	.	.	4d\	.
2C/	.	1G	.	2r	.	4e\	.
.	.	.	.	.	.	4f\	.
*	*	*	*	*custos:d	*	*	*
2.GG/	.	.	.	2D/	Chri-	2.g\	.
*	*	*Xlig	*	*	*	*	*
=43-	=43-	=43-	=43-	=43-	=43-	=43-	=43-
*	*	*lig	*	*	*	*	*
!	!	!	!	!LO:PB:g=original	!	!	!
.	.	1B-X	.	1.d	.	.	.
4AA/	.	.	.	.	.	4f\	.
4BB-/	.	.	.	.	.	4d\	.
4C/	.	.	.	.	.	4e\	.
2D/	.	1A	.	.	.	2f\	.
2AA/	.	.	.	2c\	.	2e\	.
*	*	*Xlig	*	*	*	*	*
=44-	=44-	=44-	=44-	=44-	=44-	=44-	=44-
1BB-	.	0Fl;\	.	1B-	.	1d	.
*custos:F	*	*	*	*	*	*	*
1FFl;>/	-ſti	.	.	1A;	-ſti	1cl;<\	.
=45-	=45-	=45-	=45-	=45-	=45-	=45-	=45-
!LO:LB:g=original	!	!	!	!	!	!	!
1F	Di-	1F	Di-	1A	Di-	1c	Di-
*	*	*	*	*	*	*custos:f	*
2BB-/	-lec-	1F	-lec-	2B-\	-le-	2d\	-le-
!	!	!	!	!	!	!LO:PB:g=original	!
2.D/	.	.	.	4A/	.	2.f\	.
.	.	.	.	4G/	.	.	.
=46-	=46-	=46-	=46-	=46-	=46-	=46-	=46-
*	*	*lig	*	*	*	*	*
.	.	1A	-ta	4A/	.	.	.
4C/	-ta	.	.	4B-/	.	4e\	-cta
4AA/	.	.	.	1c	.	4c\	.
4BB-/	.	.	.	.	.	4d\	.
*	*	*custos:G	*	*	*	*	*
2C/	.	1G	.	.	.	2e\	.
2BB-/	.	.	.	2d\	-cta	1f\	noſ-
*	*	*Xlig	*	*	*	*	*
*	*	*clefC3	*	*	*	*	*
=47-	=47-	=47-	=47-	=47-	=47-	=47-	=47-
*	*	*lig	*	*	*	*	*
!	!	!LO:LB:g=original	!	!	!	!	!
1C	n(ost)-	1G	noſ-	1c	noſ-	.	.
.	.	.	.	.	.	2e\	.
2FF/	-ra	1c	.	2A/	.	1f	-tra,
2F\	.	.	.	2A/	-tra	.	.
*	*	*Xlig	*	*	*	*	*
=48-	=48-	=48-	=48-	=48-	=48-	=48-	=48-
2E\	can-	1c	-tra	2G/	ca(n)-	0r	.
1F	.	.	.	1A	-di-	.	.
.	.	1c	can-	.	.	.	.
4E\	.	.	.	4G/	-da	.	.
*	*	*	*	*custos:G	*	*	*
4D\	.	.	.	4F/	.	.	.
=49-	=49-	=49-	=49-	=49-	=49-	=49-	=49-
!	!	!	!	!LO:LB:g=original	!	!	!
2E\	.	1c	-di-	2G/	.	2r	.
1F	.	.	.	1A	can-	1f	can-
*	*	*lig	*	*	*	*	*
.	.	1d	.	.	.	.	.
2G\	-di-	.	.	2B-\	.	2d\	.
=50-	=50-	=50-	=50-	=50-	=50-	=50-	=50-
1C	-da	1c	.	2G/	-di-	2.e\	-di-
.	.	.	.	1c	-da	.	.
.	.	.	.	.	.	8d/L	-da,
.	.	.	.	.	.	8c/J	.
*	*	*Xlig	*	*	*	*	*
*	*	*lig	*	*	*	*	*
2r	.	1G	-da	.	.	1d	.
*	*	*	*	*	*ij	*	*
*custos:F	*	*	*	*	*	*	*
2G\	ca(n)-	.	.	2B-\	di-	.	.
=51-	=51-	=51-	=51-	=51-	=51-	=51-	=51-
!LO:PB:g=original	!	!	!	!	!	!	!
2F\	.	1c	.	2A/	-lec-	2r	.
2E\	.	.	.	2G/	-ta	2g\	can-
*	*	*Xlig	*	*	*	*	*
*	*	*lig	*	*	*	*	*
2.D/	.	1d	.	1A	noſ-	2.f\	.
4C/	.	.	.	.	.	4e\	.
=52-	=52-	=52-	=52-	=52-	=52-	=52-	=52-
1BB-	-di-	1f	.	2.B-\	-tra	1d	-di-
.	.	.	.	4A/	ca(n)-	.	.
*	*	*Xlig	*	*	*	*	*
*	*	*	*	*	*	*custos:A	*
1C	-da	1g	.	1G	-di-	1c	-da,
=53-	=53-	=53-	=53-	=53-	=53-	=53-	=53-
!	!	!	!	!	!	!LO:LB:g=original	!
2.D/	can-	1f	.	1F	-da	1.A	can-
4E\	.	.	.	.	.	.	.
*	*	*lig	*	*	*Xij	*	*
2F\	.	1d	.	1r	.	.	.
2G\	-di-	.	.	.	.	2B-/	-di-
=54-	=54-	=54-	=54-	=54-	=54-	=54-	=54-
0F	-da,	1f	.	2c\	et	1A	-da,
.	.	.	.	2c\	im-	.	.
*	*	*Xlig	*	*	*	*	*
*	*	*lig	*	*	*	*	*
.	.	1c	.	2A/	-ma-	2r	.
.	.	.	.	2A/	-cu-	1f\	et
=55-	=55-	=55-	=55-	=55-	=55-	=55-	=55-
2r	.	1A	.	1c	-la-	.	.
1F	et	.	.	.	.	2f\	im-
*	*	*Xlig	*	*	*	*	*
.	.	1A	et	0F	-ta	2d\	.
2F\	im-	.	.	.	.	2d\	-ma-
=56-	=56-	=56-	=56-	=56-	=56-	=56-	=56-
2D/	-(m)a-	1A	im-	.	.	1f	.
2D/	-cu-	.	.	.	.	.	.
*	*	*lig	*	*	*	*	*
1F	-la-	1A	-ma-	2r	.	2c/	-cu-
*	*	*	*	*	*ij	*	*
*	*	*	*	*custos:G	*	*	*
.	.	.	.	2F/	et	2A/	-la-
=57-	=57-	=57-	=57-	=57-	=57-	=57-	=57-
!	!	!	!	!LO:LB:g=original	!	!	!
1C	-ta,	1c	.	2G/	im-	2G/	-ta,
.	.	.	.	2A/	-ma-	2c/	et
*	*	*Xlig	*	*	*	*	*
0r	.	1d	.	2F/	-cu-	2A/	im-
.	.	.	.	1G/	-la-	1B-/	-ma-
=58-	=58-	=58-	=58-	=58-	=58-	=58-	=58-
.	.	1d	-cu-	.	.	.	.
.	.	.	.	4F/	.	4A/	.
.	.	.	.	4E/	.	4G/	.
*	*	*custos:d	*	*	*	*	*
2r	.	1d	-la-	2F/	.	2A/	-cu-
2GG/	et	.	.	2G/	.	2B-/	-la-
=59-	=59-	=59-	=59-	=59-	=59-	=59-	=59-
*	*	*lig	*	*	*	*	*
!	!	!LO:PB:g=original	!	!	!	!	!
1D	im-	1d	-ta	2F/	.	0A	-ta,
.	.	.	.	2D/	-ta	.	.
*	*	*	*	*	*Xij	*	*
*custos:AA	*	*	*	*	*	*	*
2AA/	-ma-	1c	.	2A/	et	.	.
!LO:LB:g=original	!	!	!	!	!	!	!
2AA/	-cu-	.	.	2E/	im-	.	.
*	*	*Xlig	*	*	*	*	*
=60-	=60-	=60-	=60-	=60-	=60-	=60-	=60-
*	*	*lig	*	*	*	*	*
*	*	*	*	*	*	*custos:G	*
1C	-la-	1e	.	2E/	-ma-	2r	.
!	!	!	!	!	!	!LO:LB:g=original	!
.	.	.	.	1G	-cu-	2G/	et
2GG/	-ta	1g	.	.	.	1d	.
2GG/	et	.	.	2D/	-la-	.	.
*	*	*Xlig	*	*	*	*	*
=61-	=61-	=61-	=61-	=61-	=61-	=61-	=61-
1D	im-	1d	.	2D/	-ta	2A/	im-
*	*	*	*	*	*ij	*	*
.	.	.	.	1A	im-	2A/	-ma-
*	*	*lig	*	*	*	*	*
2AA/	-ma-	1c	.	.	.	4c/	.
.	.	.	.	.	.	4B-/	-cu-
2AA/	-cu-	.	.	2E/	-ma-	4A/	-la-
.	.	.	.	.	.	4G/	.
=62-	=62-	=62-	=62-	=62-	=62-	=62-	=62-
*lig	*	*	*	*	*	*	*
1D	-la-	1A	.	1F	-cu-	2F/	-ta,
.	.	.	.	.	.	1f	.
*	*	*Xlig	*	*	*	*	*
*	*	*lig	*	*	*	*	*
1C	.	1c	.	1G	-la-	.	.
.	.	.	.	.	.	2e\	.
*Xlig	*	*	*	*	*	*	*
=63-	=63-	=63-	=63-	=63-	=63-	=63-	=63-
1FF	-ta,	1A	.	1F	-ta	0f	.
*	*	*Xlig	*	*	*Xij	*	*
2r	.	1A	qua-	2r	.	.	.
*	*	*	*	*custos:D	*	*	*
!LO:SIC:v:l:s=qua-si	!	!	!	!	!	!	!
2FF/	quas	.	.	2C/	qua-	.	.
=64-	=64-	=64-	=64-	=64-	=64-	=64-	=64-
!	!	!	!	!LO:LB:g=original	!	!	!
2BB-/	.	1F	.	2D/	-ſi	0r	.
2AA/	.	.	.	2C/	au-	.	.
2BB-/	au-	1G	-ſi	2D/	.	.	.
2C/	.	.	.	2E/	-ro-	.	.
=65-	=65-	=65-	=65-	=65-	=65-	=65-	=65-
2FF/	-ro-	1A	au-	1F	-ra	2r	.
2F\	-ra	.	.	.	.	2c/	qua-
!LO:SIC:v:l:s=qua-si	!	!	!	!	!	!	!
2.F\	quas	1A	-ro-	2r	.	2d\	.
.	.	.	.	2f\	qua-	2c/	-ſi
4E\	.	.	.	.	.	.	.
=66-	=66-	=66-	=66-	=66-	=66-	=66-	=66-
2D\	.	1A	-ra	2f\	.	2d\	au-
2C/	au-	.	.	2e\	-ſi	2e\	-ro-
*	*	*lig	*	*	*	*	*
1D	-ro-	1A	con-	1d	au-	1f	-ra,
=67-	=67-	=67-	=67-	=67-	=67-	=67-	=67-
*custos:C	*	*	*	*	*	*	*
2AA/	-ra	1c	.	2c\	.	2r	.
*	*	*	*	*	*	*custos:f	*
!LO:LB:g=original	!	!	!	!	!	!	!
2C/	con-	.	.	1A	-ro-	2e\	con-
*	*	*Xlig	*	*	*	*	*
*	*	*lig	*	*	*	*	*
!	!	!	!	!	!	!LO:LB:g=original	!
2D/	.	1B-	-ſur-	.	.	2f\	.
2E\	-ſur-	.	.	2G/	-ra	4e\	-ſurg-
.	.	.	.	.	.	4d\	.
=68-	=68-	=68-	=68-	=68-	=68-	=68-	=68-
*	*	*	*	*	*ij	*	*
1F	.	1A	.	2.A/	au-	2.c/	.
.	.	.	.	4G/	.	4B-/	.
*	*	*Xlig	*	*	*	*	*
1FF	-gens	1c	.	2F/	-ro-	0A	-ens,
.	.	.	.	1F/	-ra	.	.
*	*	*	*	*	*Xij	*	*
=69-	=69-	=69-	=69-	=69-	=69-	=69-	=69-
*	*	*lig	*	*	*	*	*
2r	.	1c	-gens	.	.	.	.
2AA/	con-	.	.	2E/	con-	.	.
*	*	*custos:B-	*	*	*	*	*
2D/	.	1A	.	2F/	.	2r	.
2C/	.	.	.	2E/	-ſur-	2c/	con-
*	*	*Xlig	*	*	*	*	*
*lig	*	*clefC4	*	*	*	*	*
=70-	=70-	=70-	=70-	=70-	=70-	=70-	=70-
*	*	*lig	*	*	*	*	*
!	!	!LO:LB:g=original	!	!	!	!	!
1BB-	-ſur-	1B-X	.	2D/	-ge(n)s	2d\	.
*	*	*	*	*	*ij	*	*
*	*	*	*	*custos:c	*	*	*
.	.	.	.	2d\	con-	1f	.
!	!	!	!	!LO:PB:g=original	!	!	!
1C	.	1G	.	2.c\	-ſur-	.	.
.	.	.	.	.	.	2e\	.
.	.	.	.	4B-/	.	.	.
*Xlig	*	*Xlig	*	*	*	*	*
=71-	=71-	=71-	=71-	=71-	=71-	=71-	=71-
*	*	*lig	*	*	*	*	*
1D	-gens,	1F	.	2A/	-ge(n)s	2d\	.
*	*	*	*	*	*Xij	*	*
.	.	.	.	2d\	con-	2f\	.
1AA	.	1A	.	2c\	.	2e\	.
.	.	.	.	2A/	.	2c\	-ſur-
*	*	*Xlig	*	*	*	*	*
=72-	=72-	=72-	=72-	=72-	=72-	=72-	=72-
*	*	*lig	*	*	*	*	*
2r	.	1G	.	2B-/	.	2d\	-gens
2C/	con-	.	.	2c\	.	1e	.
2AA/	.	1c	.	2c\	-ſur-	.	.
1FF/	-ſur-	.	.	2A/	-ge(n)s	2.f\	con-
*	*	*Xlig	*	*	*	*	*
=73-	=73-	=73-	=73-	=73-	=73-	=73-	=73-
.	.	1A	.	1F	.	.	.
*	*	*	*	*	*	*custos:c	*
.	.	.	.	.	.	4e\	-ſur:
*	*	*	*	*	*	*	*ij
!	!	!	!	!	!	!LO:PB:g=original	!
2F\	.	.	.	.	.	2c/	con-
*	*	*lig	*	*	*	*	*
2D\	-ge(n)s,	1F	.	2f\	con-	2d/	.
1BB-/	co(n)-	.	.	1d\	.	1f\	-ſur-
=74-	=74-	=74-	=74-	=74-	=74-	=74-	=74-
.	.	1G	.	.	.	.	.
2C/	-ſur-	.	.	4c\	-ſur-	2e\	.
.	.	.	.	4B-\	.	.	.
*	*	*Xlig	*	*	*	*	*
2FF/	-ge(n)s,	1%7Fl;l\	.	2c\	-gens	0f	-gens
*	*ij	*	*	*	*	*	*Xij
2F\	con-	.	.	1A\	.	.	.
=75-	=75-	=75-	=75-	=75-	=75-	=75-	=75-
*custos:BB-	*	*	*	*	*	*	*
2D/	-ſur-	.	.	.	.	.	.
!LO:LB:g=original	!	!	!	!	!	!	!
2BB-/	-gens	.	.	2.B-/	.	.	.
1F	con-	.	.	.	.	2r	.
.	.	.	.	4A/	con-	.	.
*	*	*	*	*custos:B-	*	*	*
.	.	.	.	2A/	-ſur-	2f\	con-
=76-	=76-	=76-	=76-	=76-	=76-	=76-	=76-
!	!	!	!	!LO:LB:g=original	!	!	!
2BB-/	-ſur-	.	.	2B-\	-gens	2d/	.
2BB-/	-gens	.	.	2d\	.	2B-/	-ſur-
*	*Xij	*	*	*	*ij	*	*
2AA/	con-	.	.	2c\	.	2.f\	.
2FF/	.	.	.	2A/	con-	.	.
.	.	.	.	.	.	4e\	-gens
=77-	=77-	=77-	=77-	=77-	=77-	=77-	=77-
1BB-	-ſur-	.	.	1B-	-ſur-	4d/	.
.	.	.	.	.	.	4c/	.
.	.	.	.	.	.	2d/	.
1FF;l/	-ge(n)s	.	.	1Al;\	-gens	1cl;<\	.
*	*	*	*	*	*Xij	*	*
==	==	==	==	==	==	==	==
*-	*-	*-	*-	*-	*-	*-	*-
!!!system-decoration: [(s1,s2,s3,s4)]
!!!RDF**kern: l = terminal long
!!!RDF**kern: > = above
!!!RDF**kern: < = below
!!!ENC: Mateusz Solarz
!!!END: 2022-03-01
!!!ENC: Kamil Watkowski
!!!END: 2022-03-12
